X:189
T: Passionslied
N: A0546B
O: Europa, Mitteleuropa, Deutschland
N: Hs.
R: Romanze, Ballade, Lied, religioeses Lied
M: 4/2
L: 1/4
K: D
D | D2A2E=FGA | =F2E2D2z
D | A2B2=c2B2 | A2^G2A2z
A | d2B2=c2A2 | G2=F2E2z
E | D2A2E=FGA | =F2E2D2z
D | C2D2E2z=F | AG=FED2z
A | A2A2G2A2 | =F2E2D2z

